X: 27760
T: Morning Sunday
R: jig
M: 6/8
K: Dmajor
|:FAD DEF|GAG GFG|ABA Aef|gec AGE|
FAD DEF|GAG GFG|Aaf g2e|1 cBc d2A:|2 cBc d2f||
|:afd dfa|bge efg|aba ged|cAA A2f|
afd dfa|bge efg|aba ged|cBc d2f|
afd dfa|bge efg|aba g2e|cAA ABc|
dfe dAF|GBe efg|aba g2e|cBc d3:|

